!!!COM: Beethoven
!!!OTL: 24 Variationen uber Venni Amore von V. Righini
!!!Variation: Variation 24 a
**function	**harm	**kern	**kern
*	*	*clefF4	*clefG2
*	*	*k[f#c#]	*k[f#c#]
*M2/4	*M2/4	*M2/4	*M2/4
*D:	*D:	*D:	*D:
=441	=441	=441	=441
*	*	*^	*
2T	2I	[2D	8AL	(8ggL
.	.	.	8dJ	8ff#'J)
.	.	.	8GL	(8ff#L
.	.	.	8dJ	8ee'J)
=442	=442	=442	=442	=442
2T	2I	4D]	8F#L	(8eeL
.	.	.	8dJ	8dd'J)
.	.	4r	8AL	(8ddL
.	.	.	8dJ	8cc#'J)
*	*	*v	*v	*
=443	=443	=443	=443
2T	2ii7	8GL	(8cc#L
.	.	8dJ	8b'J)
.	.	8EL	(8bL
.	.	8dJ	8dd'J)
=444	=444	=444	=444
2T	2I	8F#L	(8ddL
.	.	8dJ	8a'J)
.	.	8DL	(8aL
.	.	8AJ	8f#'J)
=445	=445	=445	=445
2T	2V7b	8EL	(8f#L
.	.	8AJ	8g'J)
.	.	8C#L	(8gL
.	.	8AJ	8ee'J)
=446	=446	=446	=446
2T	2I	8DL	(8eeL
.	.	8AJ	8f#'J)
.	.	8AAL	(8f#L
.	.	8AJ	8dd'J)
=447	=447	=447	=447
4P	4ii7b	8GGL	(8ddL
.	.	8AJ	8e'J)
4D	4V	8AAL	(8eL
.	.	8AJ	8cc#'J)
=448	=448	=448	=448
2T	2I	4D	4f# 4dd
.	.	4DD	4r
*-	*-	*-	*-
